!!!COM:	Bach, Johann Sebastian
!!!CDT:	1685/02/21/-1750/07/28/
!!!OTL@@DE:	Herr Gott, dich loben wir
!!!SCT:	BWV 328
!!!PC#:	205
!!!AGN:	chorale
**kern	**kern	**kern	**kern
*ICvox	*ICvox	*ICvox	*ICvox
*Ibass	*Itenor	*Ialto	*Isoprn
*I"Bass	*I"Tenor	*I"Alto	*I"Soprano
*clefF4	*clefGv2	*clefG2	*clefG2
*k[]	*k[]	*k[]	*k[]
*e:phr	*e:phr	*e:phr	*e:phr
*M4/4	*M4/4	*M4/4	*M4/4
*met(c)	*met(c)	*met(c)	*met(c)
*MM100	*MM100	*MM100	*MM100
4EE	4G	4B	4e
=1	=1	=1	=1
4E	4B	4e	4g
4D	4d	[4f	4a
4C	[4G	8fL]	4cc
.	.	8eJ	.
4D	8GL]	4d	4a
.	8FJ	.	.
=2	=2	=2	=2
2AA;	2E;	2c;	2a;
4r	4ry	4ry	4r
4A	8cL	8eL	4cc
.	8dJ	8f#J	.
=3	=3	=3	=3
8EL	8eL	8gL	4cc
8F#J	8dJ	[8aJ	.
4G	4d	8aL]	4b
.	.	[8gJ	.
4C	16eLL	8gL]	4a
.	16dJJ	.	.
.	4c	16f#L	.
.	.	16eJJ	.
4D	.	4f#	4a
.	16dLL	.	.
.	16cJJ	.	.
=4	=4	=4	=4
2.GG;	2.B;	2.d;	2.g;
=!|:	=!|:	=!|:	=!|:
4E	[4e	[4g	4cc
=5	=5	=5	=5
4A	8eL]	8gL]	4cc
.	16dL	16f#L	.
.	16cJJ	16eJJ	.
8DL	[4d	8f#L	4cc
16EL	.	[8aJ	.
16F#JJ	.	.	.
4.G	4d]	8aL]	4b
.	.	16gL	.
.	.	16f#JJ	.
.	8cL	8e	4a
8F#	16dL	8d	.
.	16cJJ	.	.
=6	=6	=6	=6
8GL	8BL	8d	4b
8EJ	16eL	4g	.
.	16dJJ	.	.
4A	4c#	.	4a
.	.	16f#LL	.
.	.	16eJJ	.
4D;	4d;	4f#;	4a;
4C#X	4e	8eL	4a
.	.	[8gJ	.
=7	=7	=7	=7
4D	4.d	8gL]	4a
.	.	[8fnJ	.
4E	.	8fL]	4g
.	16cnLL	16eL	.
.	16BJJ	16dJJ	.
8FL	8AL	4c	4a
8EJ	8GJ	.	.
4D	4F	16dLL	4b
.	.	16eJ	.
.	.	8fJ	.
=8	=8	=8	=8
4C	8GL	16eLL	4cc
.	.	16f#JJ	.
.	8eJ	4g	.
4D	8.dL	.	4a
.	.	8f#	.
.	16cJk	.	.
4GG;	4B;	4d;	4g;
=:|!|:	=:|!|:	=:|!|:	=:|!|:
4C	[4G	4c	4e
=9	=9	=9	=9
4BB	8GL]	4d	4g
.	16AL	.	.
.	16BJJ	.	.
8AAL	8cL	8eL	4a
8FJ	[8AJ	16dL	.
.	.	16cJJ	.
8DL	8AL]	16fLL	4b
.	.	16eJJ	.
8BBJ	16G#L	4d	.
.	16F#JJ	.	.
4E	4G#	.	4b
.	.	16eLL	.
.	.	16dJJ	.
=10	=10	=10	=10
2.AA;	2.E;	2.c;	2.a;
=:|!	=:|!	=:|!	=:|!
8EL	8eL	8gL	4b
8F#J	8d#J	8aJ	.
=11	=11	=11	=11
8GL	4e	4g	4b
8F#J	.	.	.
4E	4e	4g	8bL
.	.	.	8ccJ
4BB	4dn	[4g	4dd
4C#	8eL	8gL]	4a
.	[8AJ	16fnL	.
.	.	16eJJ	.
=12	=12	=12	=12
4D	8AL]	4.f	4a
.	16dL	.	.
.	16cJJ	.	.
4G	8BL	.	4g
.	16cL	16eLL	.
.	16BJJ	16dJJ	.
8FL	8AL	8cL	4a
8EJ	16BL	16dL	.
.	16cJJ	16eJJ	.
4D	4d	4f	4b
=13	=13	=13	=13
4C	8GL	16eLL	4cc
.	.	16f#JJ	.
.	8eJ	4g	.
4D	8.dL	.	4a
.	.	8f#	.
.	16cJk	.	.
4GG;	4B;	4d;	4g;
=!|:	=!|:	=!|:	=!|:
8EL	4c	8gL	4cc
8DJ	.	8fnJ	.
=14	=14	=14	=14
8CL	[4G	8eL	4cc
8D	.	8f#J	.
8E	8GL]	8gL	4cc
8F#J	8dJ	[8aJ	.
4G	4d	8aL]	4b
.	.	[8gJ	.
4D	4d	8gL]	4a
.	.	8f#J	.
=15	=15	=15	=15
4GG	4.d	8gL	4b
.	.	8f#J	.
4AA	.	4e	4a
.	8c#	.	.
4DD;	4d;	4f#;	4a;
8DL	8FnL	4d	4a
8EJ	8GJ	.	.
=16	=16	=16	=16
4F	8AL	16cnLL	4a
.	.	16AJ	.
.	8FJ	[8dJ	.
4E	[4G	8dL]	4g
.	.	[8cJ	.
4D	8GL]	8cL]	4a
.	8F#J	16dL	.
.	.	16cJJ	.
8GL	4d	8BL	4b
8FnJ	.	8dJ	.
=17	=17	=17	=17
8EL	8cL	4.g	4cc
8CJ	8eJ	.	.
4D	8.dL	.	4a
.	.	8f#	.
.	16cJk	.	.
4GG;	4B;	4d;	4g;
=:|!|:	=:|!|:	=:|!|:	=:|!|:
4D	4d	4fn	4a
=18	=18	=18	=18
4C#	8AL	16eLL	4a
.	.	16fJ	.
.	[8eJ	[8gJ	.
4D	8eL]	8gL]	4a
.	16dL	[8f#J	.
.	16cJJ	.	.
4.E	4B	8f#L]	4g
.	.	16eL	.
.	.	16f#JJ	.
.	4e	4g	4b
8F#	.	.	.
=19	=19	=19	=19
4G	4d	8gL	4b
.	.	8fnJ	.
4C#	4e	[4g	4a
4D;	4d;	8gL]	4a;
.	.	8f;J	.
4F	8AL	8cnL	4a
.	8B-J	16fL	.
.	.	16eJJ	.
=20	=20	=20	=20
8AAL	4c	4.f	4a
8BB-J	.	.	.
4C	4c	.	4g
.	.	8e	.
8FFL	4c	4f	8aL
8GG	.	.	8bJ
8AA	[4c	[4f	4cc
8BBnJ	.	.	.
=21	=21	=21	=21
4C	4.c]	8fL]	4g
.	.	8eJ	.
4GG	.	4d	4g
.	8B	.	.
4C;	4G;	4c;	4e;
=:|!	=:|!	=:|!	=:|!
4FF	4A	[4c	4f
=22	=22	=22	=22
4GG	4G	8cL]	4d
.	.	8BJ	.
8AAL	8CL	8cL	4f
8BBJ	8GJ	[8dJ	.
4C	4G	8dL]	4e
.	.	8cJ	.
4BB	8GL	[4d	4d
.	8DJ	.	.
=23	=23	=23	=23
4AA	[4A	8dL]	4e
.	.	16cL	.
.	.	16BJJ	.
4D	8AL]	8cL	4f#
.	8DJ	16BL	.
.	.	16AJJ	.
4GG;	4D;	4B;	4g;
8GL	4B	4d	4g
8FnJ	.	.	.
=24	=24	=24	=24
8EL	8cL	8eL	4g
8DJ	8dJ	8fJ	.
4C	8eL	8gL	4g
.	8cJ	8eJ	.
8FL	8AL	8cL	4.a
16GL	8cJ	8fJ	.
16AJJ	.	.	.
[4B-	16dLL	16fLL	.
.	16eJ	16e	.
.	8fJ	16d	8f
.	.	16c#JJ	.
=25	=25	=25	=25
8B-L]	8fL	8dL	4g
8C#J	8eJ	8AJ	.
4D	8dL	8AL	4f
.	8AJ	[8dJ	.
4AA;	4A;	8dL]	4e;
.	.	8c#;J	.
4AA	4E	4A	4cn
=26	=26	=26	=26
4BB	4D	4G	4d
8AAL	8AL	8cL	4f
8BBJ	8GJ	[8dJ	.
4C	4G	8dL]	4e
.	.	[8cJ	.
4GG	4G	8cL]	4d
.	.	8BJ	.
=27	=27	=27	=27
4FF	8CL	16ALL	4f
.	.	16BJJ	.
.	8AJ	4c	.
4GG	8.GL	.	4d
.	.	8B	.
.	16FJk	.	.
4C;	4E;	4G;	4c;
8CL	8EL	4c	4g
8DJ	8FJ	.	.
=28	=28	=28	=28
4E	4G	8cL	4g
.	.	8dJ	.
4C	8cL	[4e	4g
.	8B-J	.	.
4FF	8AL	8eL]	4.a
.	[8FJ	16dL	.
.	.	16c#JJ	.
8BB-XL	8FL]	[4d	.
8AAJ	16GL	.	8f
.	16AJJ	.	.
=29	=29	=29	=29
4GG	4B-	8dL]	4g
.	.	[8eJ	.
4D	4A	8eL]	4f
.	.	[8dJ	.
4AA;	4A;	8dL]	4e;
.	.	8c#;J	.
8DL	4A	[4d	4f
8CnJ	.	.	.
=30	=30	=30	=30
8BBnL	4G	8dL]	4f
8AAJ	.	8cJ	.
4GG	4G	8BL	4f
.	.	[8dJ	.
4C	4G	8dL]	4e
.	.	[8cJ	.
4GG	4G	8cL]	4d
.	.	8BJ	.
=31	=31	=31	=31
8AAL	8FL	4.c	4f
8FFJ	8AJ	.	.
4GG	8.GL	.	4d
.	.	8B	.
.	16FJk	.	.
4CC;	4E;	4G;	4c;
8CL	8EL	4c	4g
8DJ	8FJ	.	.
=32	=32	=32	=32
8EL	8GL	8cL	4g
8FJ	8AJ	8dJ	.
4G	4B-	8eL	4g
.	.	16dL	.
.	.	16eJJ	.
8FL	4c	4f	4.a
8EJ	.	.	.
[4D	8.dL	4f	.
.	.	.	8f
.	16cJk	.	.
=33	=33	=33	=33
8DL]	8B-L	4.e	4g
8C#J	8AJ	.	.
4D	4A	.	4f
.	.	8d	.
4AA;	4A;	4c#;	4e;
4A	4A	4cn	8eL
.	.	.	8fJ
=34	=34	=34	=34
8EL	8GL	8BL	4g
8DJ	16AL	16cL	.
.	16BJJ	16dJJ	.
4C	8cL	8eL	4a
.	8BJ	8dJ	.
8FL	8AL	8cL	4a
8EJ	16BL	16dL	.
.	16cJJ	16eJJ	.
4D	4d	4f	4a
=35	=35	=35	=35
8AL	16cLL	[4e	4cc
.	16B	.	.
8GJ	16A	.	.
.	16GJJ	.	.
8FL	8AL	16eLL]	4a
.	.	16d	.
8DJ	8fJ	16c	.
.	.	16BJJ	.
4A;	4e;	4c;	4a;
8AAL	8cL	[4e	4a
8BBJ	8dJ	.	.
=36	=36	=36	=36
8CL	8eL	8eL]	4a
8DJ	[8dJ	8fJ	.
4.E	8dL]	4g	4g
.	[8cJ	.	.
.	8cL]	4f	8aL
8DL	8dJ	.	8bJ
8E	8GL	8gL	4cc
8FJ	8AJ	8fJ	.
=37	=37	=37	=37
8GL	8B	4e	4g
8F	4c	.	.
8G	.	4d	4g
8GGJ	8B	.	.
4C;	4G;	4c;	4e;
=!|:	=!|:	=!|:	=!|:
4AA	4c	4e	4a
=38	=38	=38	=38
4D	4d	4f	4a
8CL	8AL	8eL	4a
8DJ	[8fJ	16dL	.
.	.	16cJJ	.
8EL	8fL]	4B	4g
8F	16eL	.	.
.	16dJJ	.	.
8G	8eL	8BL	4b
8FJ	8AJ	16cL	.
.	.	16dJJ	.
=39	=39	=39	=39
8EL	8GL	[4e	4b
8DJ	8F#J	.	.
4C#	4G	16eLL]	4b
.	.	16f#J	.
.	.	8gJ	.
4D;	4d;	8gL	4a;
.	.	8f#;J	.
8FnL	[4cn	4fn	4a
8EJ	.	.	.
=40	=40	=40	=40
4D	8cL]	4f	4a
.	8B-J	.	.
4E	4B-	4c	4g
4F	8AL	4c	4a
.	8GJ	.	.
8AAL	4F	8cL	4cc
8BBnJ	.	8dJ	.
=41	=41	=41	=41
4C	8EL	[4e	4g
.	8GJ	.	.
4GG	4B-	16eLL]	4g
.	.	16c#J	.
.	.	[8dJ	.
4AA;	4A;	8dL]	4e;
.	.	8c#;J	.
=:|!	=:|!	=:|!	=:|!
[4D	8AL	4d	8fL
.	8GJ	.	8eJ
=42	=42	=42	=42
8DL]	[4F	8AL	4d
8CJ	.	16B-L	.
.	.	16cJJ	.
8BB-L	8FL]	[4d	4f
8AAJ	16GL	.	.
.	16AJJ	.	.
4GG	8B-XL	8dL]	4g
.	16cL	[8eJ	.
.	16B-JJ	.	.
4FF	8AL	8eL]	4a
.	8FJ	[8dJ	.
=43	=43	=43	=43
4EE	8B-L	8dL]	4g
.	8GJ	8c#J	.
4DD	4A	4d	4f
4AA;	4A;	4c#;	4e;
8DL	4A	4d	4f
8CnJ	.	.	.
=44	=44	=44	=44
8BB-L	4B-	[4d	4f
8AAJ	.	.	.
4GG	4B-	8dL]	4g
.	.	8eJ	.
8FFL	4c	8fL	4a
16GGL	.	8eJ	.
16AAJJ	.	.	.
[4BB-	4B-	4d	8gL
.	.	.	8fJ
=45	=45	=45	=45
8BB-L]	4B-	4d	4g
8GGJ	.	.	.
4D	8AL	16dLL	4f
.	.	16c#J	.
.	8G#J	8dJ	.
4AA;	4A;	4c#;	4e;
4BBn	4Gn	4d	4g
=46	=46	=46	=46
2.C	4G	4cn	4e
.	4E	4G	4c
.	2F	4A	2d
8BBL	.	8G#L	.
8AAJ	.	8AJ	.
=47	=47	=47	=47
4.GG#	4E	8BL	[1e
.	.	8cJ	.
.	[4B	4d	.
8EE	.	.	.
8AAL	4B]	[2c	.
8BB	.	.	.
8C	[4A	.	.
8DJ	.	.	.
=48	=48	=48	=48
2E	4A]	4c]	1e;]
.	8G#L	8BL	.
.	8F#J	8AJ	.
2EE;	2G#;	2B;	.
==	==	==	==
*-	*-	*-	*-
!!!hum2abc: -Q ''
!!!title: @{PC#}. @{OTL@@DE}
!!!YOR1: 371 vierstimmige Choralges&auml;nge von Johann Sebastian Bach, 
!!!YOR2: 4th ed. by Alfred D&ouml;rffel (Leipzig: Breitkopf und H&auml;rtel, 
!!!YOR2: c.1875). 178 pp. Plate "V.A.10".  reprint: J.S. Bach, 371 Four-Part 
!!!YOR4: Chorales (New York: Associated Music Publishers, Inc., c.1940).
!!!SMS: B&H, 4th ed, Alfred D&ouml;rffel, c.1875, plate V.A.10
!!!EED:  Craig Stuart Sapp
!!!EEV:  2009/05/22
